Adwaita++/mimetypes/16/text-x-fortran.svg

<svg height="16" width="16" xmlns="http://www.w3.org/2000/svg">
  <path d="m1 .50018391v1.07141509h.8035642c.3718986 0 .6754359-.024628.9709714.0701.2955356.094769.5335212.3536787.654723.7400025.2423985.7726426.2480882 2.1633822.2487567 5.0892239-.0004021 1.1135597-.00739 1.9519048-.023824 2.6719936h.012314l-.00402.272043c-.017994 1.138445-.050976 2.292943-.1164018 2.689787-.065431.396843-.2006308.605672-.3280199.752553-.143503.165462-.3125643.312639-.5388438.409107-.2262846.09646-.497051.144041-.8624156.161909-.377332.0185-.6255006.0058-.8166422 0v1.071682h7.4999045v-1.071682c-.1953986.0045-.4554492.01518-.8148074 0-.6682635-.02825-1.0518732-.232095-1.3481627-.528379-.1993692-.199374-.3383789-.469975-.4067503-.897991-.068376-.428016-.092422-1.575463-.1088222-2.586729v-1.8795982h.8035587c1.0973804 0 1.9968793.242288 2.5106068.9105465l.01779.023271.01257.026689c.351095.7520557.387263 1.5520207.39341 2.2537387h1.0834526v-6.9642028h-1.0716756l-.000503.309448c-.000503.8261164-.298743 1.4582666-.8318169 1.8425398-.5330536.3842731-1.3018713.7971905-2.1137836.5265498h-.8035789v-5.8927827h2.4106864c2.1267906 0 3.0357646-.01538 3.6181196.3248785l.02302.013621.02016.017742c.684659.6107838 1.054256 1.2656626 1.237778 1.9628669.162291.616549.180777 1.268794.18415 1.9665261h1.077431v-5.35707477z" fill="#474747"/>
</svg>

<svg xmlns="http://www.w3.org/2000/svg" width="16" height="16" version="1.1">
 <path style="fill:#474747" d="M 1,0.50018391 V 1.571599 h 0.8035642 c 0.3718986,0 0.6754359,-0.024628 0.9709714,0.0701 0.2955356,0.094769 0.5335212,0.3536787 0.654723,0.7400025 0.2423985,0.7726426 0.2480882,2.1633822 0.2487567,5.0892239 -4.021e-4,1.1135597 -0.00739,1.9519048 -0.023824,2.6719936 h 0.012314 l -0.00402,0.272043 c -0.017994,1.138445 -0.050976,2.292943 -0.1164018,2.689787 -0.065431,0.396843 -0.2006308,0.605672 -0.3280199,0.752553 -0.143503,0.165462 -0.3125643,0.312639 -0.5388438,0.409107 -0.2262846,0.09646 -0.497051,0.144041 -0.8624156,0.161909 -0.377332,0.0185 -0.6255006,0.0058 -0.8166422,0 V 15.5 h 7.4999045 v -1.071682 c -0.1953986,0.0045 -0.4554492,0.01518 -0.8148074,0 C 7.0169956,14.400068 6.6333859,14.196223 6.3370964,13.899939 6.1377272,13.700565 5.9987175,13.429964 5.9303461,13.001948 5.8619701,12.573932 5.8379241,11.426485 5.8215239,10.415219 V 8.5356208 h 0.8035587 c 1.0973804,0 1.9968793,0.242288 2.5106068,0.9105465 l 0.01779,0.023271 0.01257,0.026689 c 0.351095,0.7520557 0.387263,1.5520207 0.39341,2.2537387 H 10.642912 V 4.7856632 H 9.5712364 l -5.03e-4,0.309448 C 9.5702304,5.9212276 9.2719904,6.5533778 8.7389165,6.937651 8.2058629,7.3219241 7.4370452,7.7348415 6.6251329,7.4642008 H 5.821554 V 1.5714181 h 2.4106864 c 2.1267906,0 3.0357646,-0.01538 3.6181196,0.3248785 l 0.02302,0.013621 0.02016,0.017742 c 0.684659,0.6107838 1.054256,1.2656626 1.237778,1.9628669 0.162291,0.616549 0.180777,1.268794 0.18415,1.9665261 h 1.077431 V 0.49997783 Z"/>
</svg>
